nado/static/img/certificate-decor-left.svg

<svg width="98" height="130" viewBox="0 0 98 130" fill="none" xmlns="http://www.w3.org/2000/svg">
<g opacity="0.5">
<path d="M88.5617 122.002L87.8871 121.616C87.2125 121.231 86.6343 120.845 85.9597 120.46C76.9012 115.545 64.7589 111.497 52.8093 106.101C48.3764 104.174 44.1362 101.957 39.9924 99.4515C9.1547 81.238 2.11986 50.8822 15.6113 18.8881L15.2259 18.7917C1.63803 50.9786 8.5765 81.5271 39.5105 100.03C43.6543 102.439 47.9909 104.752 52.4238 106.679C64.3734 112.172 76.4193 116.123 85.4779 121.038C86.0561 121.327 86.538 121.616 87.1162 121.905L87.7907 122.291C91.26 124.314 94.3437 126.916 96.8493 130L97.5239 129.518C95.0183 126.531 91.9345 123.929 88.5617 122.002Z" fill="#FF005C"/>
<path d="M74.7812 114.196C75.5521 111.016 75.3594 107.257 68.71 101.861C67.0718 100.608 65.3372 99.3551 63.6025 98.295C64.0844 109.377 70.1555 110.726 74.7812 114.196Z" fill="#FF005C"/>
<path d="M58.881 106.872C60.6156 108.124 62.2539 108.992 62.9284 109.474C64.1812 102.921 57.9173 97.9095 52.4243 94.0548C52.2316 97.0422 52.9062 99.9332 54.3517 102.535C55.6045 104.27 57.1464 105.715 58.881 106.872Z" fill="#FF005C"/>
<path d="M51.3643 104.559C52.4243 98.7769 47.9914 93.8621 42.4021 88.9474C40.9566 97.235 45.8713 100.993 51.3643 104.559Z" fill="#FF005C"/>
<path d="M40.2815 98.7768C41.4379 94.0548 38.7397 88.9473 33.7285 82.7798C31.1266 89.4292 34.3067 94.4403 40.2815 98.7768Z" fill="#FF005C"/>
<path d="M30.067 91.6456C31.898 86.7309 29.1034 80.0815 26.5978 75.3595C23.514 79.7924 23.8031 85.4781 30.067 91.6456Z" fill="#FF005C"/>
<path d="M21.2973 66.5901C16.4789 71.2157 17.6353 77.4796 21.2973 82.9726C23.8992 78.3469 22.7428 71.6012 21.2973 66.5901Z" fill="#FF005C"/>
<path d="M18.1172 56.4714C14.7443 58.6879 11.7569 63.7954 15.0334 72.4685C18.3099 68.5174 18.6954 61.2898 18.1172 56.4714Z" fill="#FF005C"/>
<path d="M16.3823 50.1112C16.6714 48.6656 16.8642 47.3165 16.9605 45.871C13.1058 47.5092 9.63659 52.0385 11.1785 61.0971C13.9731 58.0133 15.8041 54.255 16.3823 50.1112Z" fill="#FF005C"/>
<path d="M17.9245 34.7887C14.1661 35.7524 10.0223 39.7035 9.82959 48.8584C14.8407 45.1964 17.3463 38.1616 17.9245 34.7887Z" fill="#FF005C"/>
<path d="M20.623 23.8029C14.5518 24.5738 12.0462 31.0304 10.7935 36.7161C15.4191 33.7287 18.9847 29.1994 20.623 23.8029Z" fill="#FF005C"/>
<path d="M13.7803 24.8628C18.7914 22.3573 22.7425 18.2134 24.8626 13.106C17.8277 13.106 14.8403 22.1645 13.7803 24.8628Z" fill="#FF005C"/>
<path d="M25.9232 0C18.4066 6.07116 15.901 12.6242 16.2865 17.1534C20.4303 14.6479 24.3814 4.62565 25.9232 0Z" fill="#FF005C"/>
<path d="M72.9504 116.701C71.8903 116.509 65.3373 114.581 61.3863 115.545C58.3989 116.316 55.5078 117.761 53.0986 119.689C55.2187 120.267 57.4352 120.749 59.6516 120.942C68.2284 122.002 71.1194 119.303 72.9504 116.701Z" fill="#FF005C"/>
<path d="M48.4732 109.666C45.3895 110.245 42.4021 111.305 39.6074 112.943C41.7275 113.714 43.944 114.388 46.2568 114.87C49.1478 115.448 52.0389 115.448 54.9299 114.87C56.9536 114.388 58.7846 113.136 60.0374 111.401C59.4592 111.305 57.5318 110.726 55.3154 110.245C53.0989 109.666 50.7861 109.474 48.4732 109.666Z" fill="#FF005C"/>
<path d="M26.501 104.27C28.5247 105.426 30.6448 106.39 32.8612 107.161C41.0525 109.955 44.7145 107.835 47.0273 105.426C45.8709 105.137 39.7034 102.535 35.8486 102.535C32.6685 102.632 29.5847 103.21 26.501 104.27Z" fill="#FF005C"/>
<path d="M14.8403 92.9948C16.575 94.633 18.5023 96.0786 20.526 97.235C27.7536 101.475 32.0901 100.319 34.8848 98.1986C29.5846 95.9822 27.7536 92.513 14.8403 92.9948Z" fill="#FF005C"/>
<path d="M23.8995 89.2365C18.2138 85.189 18.5029 82.3944 5.9751 79.2142C9.92617 85.5745 16.7683 92.1275 23.8995 89.2365Z" fill="#FF005C"/>
<path d="M1.15674 63.9882C1.73494 66.1082 2.60225 68.132 3.6623 70.0593C7.51701 76.9978 11.7572 78.3469 15.4192 77.9615C11.179 72.854 12.5281 70.2521 1.15674 63.9882Z" fill="#FF005C"/>
<path d="M10.215 65.0482C7.61305 59.3625 9.34767 57.0497 0 48.3766C0.578206 55.5078 2.89103 63.699 10.215 65.0482Z" fill="#FF005C"/>
<path d="M8.19122 51.364C7.13117 45.1965 9.05853 43.1728 2.21642 33.3433C1.15638 40.2817 1.63821 48.2803 8.19122 51.364Z" fill="#FF005C"/>
<path d="M9.15498 37.5834C9.44408 31.8013 11.6605 29.7776 6.93852 19.0808C4.72206 25.5374 3.66202 33.1505 9.15498 37.5834Z" fill="#FF005C"/>
<path d="M13.7809 5.87842C10.6008 11.8532 8.3843 18.8881 12.7208 24.1883C13.9736 18.4062 16.4792 17.3462 13.7809 5.87842Z" fill="#FF005C"/>
</g>
</svg>

<svg xmlns="http://www.w3.org/2000/svg" fill="none" viewBox="0 0 98 130"><g fill="#DD0707" opacity=".5"><path d="M88.6 122l-.7-.4-2-1.1c-9-5-21.1-9-33-14.4-4.5-2-8.8-4.1-13-6.6C9.3 81.2 2.2 50.9 15.7 18.9l-.4-.1C1.6 51 8.6 81.5 39.5 100c4.2 2.4 8.5 4.8 13 6.7 11.9 5.5 24 9.4 33 14.3l1.6 1 .7.3c3.5 2 6.5 4.6 9 7.7l.7-.5c-2.5-3-5.6-5.6-9-7.5z"/><path d="M74.8 114.2c.8-3.2.6-7-6-12.3a60.6 60.6 0 00-5.2-3.6c.5 11 6.6 12.4 11.2 15.9zM58.9 106.9c1.7 1.2 3.4 2 4 2.6 1.3-6.6-5-11.6-10.5-15.4-.2 3 .5 5.8 2 8.4 1.2 1.8 2.7 3.2 4.5 4.4zM51.4 104.6c1-5.8-3.4-10.7-9-15.7-1.4 8.3 3.5 12 9 15.7zM40.3 98.8c1.1-4.7-1.6-9.9-6.6-16-2.6 6.6.6 11.6 6.6 16zM30 91.6c1.9-4.9-.9-11.5-3.4-16.2-3 4.4-2.8 10 3.5 16.2zM21.3 66.6c-4.8 4.6-3.7 10.9 0 16.4 2.6-4.7 1.4-11.4 0-16.4zM18.1 56.5c-3.4 2.2-6.3 7.3-3 16 3.2-4 3.6-11.2 3-16zM16.4 50.1L17 46C13 47.5 9.6 52 11.2 61c2.8-3 4.6-6.8 5.2-11zM18 34.8c-3.8 1-8 4.9-8.2 14 5-3.6 7.5-10.6 8.1-14zM20.6 23.8c-6 .8-8.6 7.2-9.8 13 4.6-3 8.2-7.6 9.8-13zM13.8 24.9c5-2.5 9-6.7 11-11.8-7 0-10 9-11 11.8z"/><path d="M26 0c-7.6 6-10.1 12.6-9.7 17.2 4.1-2.6 8-12.6 9.6-17.2zM73 116.7c-1.1-.2-7.7-2.1-11.6-1.2-3 .8-5.9 2.3-8.3 4.2 2.1.6 4.3 1 6.6 1.2 8.5 1.1 11.4-1.6 13.3-4.2zM48.5 109.7c-3.1.5-6.1 1.6-8.9 3.2 2.1.8 4.3 1.5 6.7 2 2.8.5 5.7.5 8.6 0a9 9 0 005.1-3.5c-.5 0-2.5-.7-4.7-1.2s-4.5-.7-6.8-.5zM26.5 104.3c2 1.1 4.1 2 6.4 2.9 8.2 2.8 11.8.6 14.1-1.8-1.1-.3-7.3-2.9-11.2-2.9-3.1.1-6.2.7-9.3 1.8zM14.8 93c1.8 1.6 3.7 3 5.7 4.2 7.3 4.3 11.6 3.1 14.4 1-5.3-2.2-7.1-5.7-20-5.2zM23.9 89.2c-5.7-4-5.4-6.8-18-10 4 6.4 10.9 13 18 10zM1.2 64c.5 2.1 1.4 4.1 2.5 6 3.8 7 8 8.3 11.7 8-4.2-5.1-2.9-7.7-14.2-14zM10.2 65C7.6 59.4 9.3 57 0 48.4.6 55.5 2.9 63.7 10.2 65zM8.2 51.4c-1-6.2.9-8.2-6-18-1 6.9-.6 14.9 6 18zM9.2 37.6c.2-5.8 2.5-7.8-2.3-18.5-2.2 6.4-3.2 14 2.3 18.5zM13.8 5.9c-3.2 6-5.4 13-1 18.3 1.2-5.8 3.7-6.9 1-18.3z"/></g></svg>
